assets/images/brand-1.svg

<svg width="131" height="91" viewBox="0 0 131 91" fill="none" xmlns="http://www.w3.org/2000/svg">
<g opacity="0.5">
<path d="M115.463 64.913V73.6199H105.159V64.913H100.754V86.6388H105.159V77.0343H115.463V86.6388H119.869V64.913H115.463ZM65.7666 83.1693H55.6554C57.4177 81.5612 58.2713 77.3207 58.409 72.4909L58.4861 68.3109H65.7501V83.1803L65.7666 83.1693ZM70.1723 64.913H54.3502C54.3502 64.913 54.4438 68.6469 54.207 73.6199C53.9702 78.5928 52.3456 82.8499 48.9146 83.329V91.0005H53.2378V86.6388H68.1622V91.0005H72.5679V83.2574H70.2164V64.913H70.1723ZM32.4207 76.0705C31.1155 78.2459 30.1132 79.6667 29.0558 81.6989C29.1825 79.2867 29.221 77.2931 29.221 74.1045V64.913H24.964V86.6388H29.7938L37.267 75.4262C38.4455 73.3941 39.5249 71.7805 40.6484 69.6161C40.4832 72.5845 40.4171 74.2807 40.4171 77.3923V86.6388H44.7292V64.913H39.6846L32.4207 76.0705ZM90.6535 82.2936C90.6535 82.2936 89.3262 83.4557 84.7663 83.4557C81.5116 83.4557 80.9113 81.2528 80.9113 80.3606C80.9113 76.5552 83.8411 76.5552 86.9196 76.5331H90.6755V82.2936H90.6535ZM85.7851 64.7753C83.2712 64.7764 80.7606 64.9604 78.2734 65.3261V68.9222C80.5662 68.4631 82.902 68.2544 85.2399 68.2999C87.9935 68.2999 90.7471 69.6767 90.7471 72.3257V73.6804L86.0605 73.6309C76.6983 73.6309 76.434 77.7557 76.434 80.2945C76.434 84.0009 79.2977 86.5176 84.4634 86.5176C86.6999 86.5087 88.911 86.044 90.9619 85.1519V86.4901H94.9656V73.4546C94.8444 71.081 93.8641 64.7533 85.7851 64.7533M15.2548 74.4624C15.2548 77.8438 12.7876 79.5015 10.1772 79.6117C8.23325 79.6426 6.2914 79.4691 4.3837 79.094V68.2393H8.39843C11.5871 68.2393 15.1117 69.3848 15.2548 73.6419V74.4459V74.4624ZM6.81236 64.6982H0V90.7527H4.40573V82.547C6.50251 83.0127 8.64096 83.2655 10.7885 83.3015C18.7244 83.4061 19.6 77.0784 19.7432 74.6056L19.7101 74.3413C19.7101 67.3307 15.8882 64.7203 6.83439 64.7203" fill="#E0EDF8"/>
<path d="M127.106 64.3081H127.657C127.888 64.3081 128.004 64.2145 128.004 63.9997C128.004 63.9581 127.996 63.9169 127.979 63.8789C127.962 63.8409 127.937 63.8071 127.905 63.7799C127.874 63.7526 127.837 63.7326 127.797 63.7211C127.757 63.7096 127.715 63.7069 127.673 63.7133H127.123L127.106 64.3081ZM127.106 65.5252H126.66V63.3223H127.762C127.848 63.3138 127.935 63.3236 128.018 63.3511C128.1 63.3786 128.176 63.4232 128.24 63.4819C128.303 63.5407 128.354 63.6122 128.389 63.692C128.423 63.7717 128.44 63.8578 128.439 63.9446C128.442 64.0555 128.412 64.1648 128.352 64.2582C128.292 64.3515 128.205 64.4246 128.103 64.4678C128.279 64.5394 128.367 64.611 128.367 65.0185C128.367 65.3269 128.367 65.4095 128.472 65.4426V65.5032H127.982C127.934 65.3577 127.913 65.2046 127.921 65.0516C127.921 64.7652 127.921 64.6385 127.569 64.6385H127.101L127.106 65.5252Z" fill="#E0EDF8"/>
<path d="M125.514 64.3947C125.517 64.0022 125.636 63.6195 125.857 63.2947C126.077 62.9699 126.389 62.7177 126.752 62.5698C127.116 62.4218 127.515 62.3848 127.9 62.4633C128.284 62.5419 128.637 62.7326 128.913 63.0112C129.19 63.2899 129.377 63.6442 129.453 64.0294C129.528 64.4146 129.488 64.8135 129.337 65.1758C129.186 65.5381 128.931 65.8476 128.604 66.0654C128.278 66.2831 127.894 66.3993 127.502 66.3993C126.972 66.3964 126.466 66.1837 126.093 65.8079C125.721 65.4322 125.512 64.9239 125.514 64.3947ZM124.963 64.3947C124.966 64.8961 125.118 65.3853 125.399 65.8006C125.68 66.216 126.077 66.5388 126.542 66.7284C127.006 66.918 127.516 66.966 128.007 66.8661C128.498 66.7663 128.949 66.5232 129.303 66.1675C129.656 65.8118 129.896 65.3594 129.993 64.8674C130.089 64.3754 130.038 63.8658 129.846 63.4028C129.653 62.9399 129.328 62.5443 128.91 62.2661C128.493 61.9879 128.003 61.8394 127.502 61.8394C126.826 61.8423 126.18 62.113 125.704 62.592C125.228 63.0711 124.961 63.7194 124.963 64.3947Z" fill="#E0EDF8"/>
<path d="M77.4919 32.4647C83.8142 30.9117 89.2112 24.5124 89.2112 17.9038C89.2112 8.19466 80.0858 0 70.5529 0H48.0176L52.7923 8.77843H69.0054C74.2207 8.77843 77.7342 13.812 77.7342 18.0029C77.7342 22.0672 73.7911 26.6327 68.9228 26.6327H62.573C64.7759 30.6529 76.3409 51.7564 77.167 53.2653H89.3929C87.3828 49.8178 78.4997 35.7305 77.1009 33.1421C76.9522 32.8888 76.7374 32.5914 76.7374 32.5914L77.4919 32.4647Z" fill="#E0EDF8"/>
<path d="M36.2861 20.8116C29.9639 22.3976 24.5724 28.7474 24.5724 35.367C24.5724 45.0707 33.7032 53.2653 43.2361 53.2653H65.777L60.9582 44.4924H44.7671C39.5629 44.4924 36.0383 39.4699 36.0383 35.2569C36.0383 31.1981 39.9869 26.6767 44.8497 26.6767H51.2215C49.0187 22.6124 37.4536 1.51447 36.622 0H24.3906C26.4118 3.49154 35.2893 17.5403 36.6826 20.1287C36.7918 20.3199 36.9132 20.5038 37.0461 20.6794L36.2861 20.8116Z" fill="#E0EDF8"/>
</g>
</svg>

<svg width="131" height="91" viewBox="0 0 131 91" fill="none" xmlns="http://www.w3.org/2000/svg"><g opacity=".5" fill="#E0EDF8"><path d="M115.463 64.913v8.707h-10.304v-8.707h-4.405v21.726h4.405v-9.605h10.304v9.605h4.406V64.913h-4.406ZM65.767 83.169H55.655c1.763-1.608 2.616-5.848 2.754-10.678l.077-4.18h7.264v14.87l.017-.012Zm4.405-18.256H54.35s.094 3.734-.143 8.707c-.237 4.973-1.861 9.23-5.292 9.709v7.672h4.323v-4.362h14.924V91h4.406v-7.744h-2.352V64.913h-.044ZM32.421 76.07c-1.305 2.176-2.308 3.597-3.365 5.629.127-2.412.165-4.406.165-7.594v-9.192h-4.257v21.726h4.83l7.473-11.213c1.178-2.032 2.258-3.645 3.381-5.81-.165 2.969-.23 4.665-.23 7.776v9.247h4.311V64.913h-5.044L32.42 76.07Zm58.232 6.224s-1.327 1.162-5.887 1.162c-3.254 0-3.855-2.203-3.855-3.095 0-3.806 2.93-3.806 6.009-3.828h3.755v5.76h-.022Zm-4.868-17.519a51.794 51.794 0 0 0-7.512.551v3.596a32.282 32.282 0 0 1 6.967-.622c2.754 0 5.507 1.377 5.507 4.026v1.354l-4.686-.05c-9.363 0-9.627 4.126-9.627 6.665 0 3.706 2.864 6.223 8.03 6.223a16.456 16.456 0 0 0 6.498-1.366v1.338h4.004V73.455c-.122-2.374-1.102-8.702-9.18-8.702m-70.531 9.71c0 3.38-2.467 5.038-5.078 5.149a27.744 27.744 0 0 1-5.793-.518V68.239h4.014c3.19 0 6.714 1.146 6.857 5.403v.82Zm-8.443-9.765H0v26.055h4.406v-8.206c2.097.466 4.235.719 6.383.755 7.935.104 8.811-6.224 8.954-8.696l-.033-.265c0-7.01-3.822-9.62-12.876-9.62m120.272-.413h.551c.231 0 .347-.094.347-.308a.279.279 0 0 0-.099-.22.28.28 0 0 0-.232-.067h-.55l-.017.595Zm0 1.217h-.446v-2.203h1.102a.62.62 0 0 1 .627.37c.034.08.051.166.05.253a.552.552 0 0 1-.336.523c.176.071.264.143.264.55 0 .309 0 .391.105.425v.06h-.49a1.236 1.236 0 0 1-.061-.451c0-.287 0-.414-.352-.414h-.468l.005.887Z"/><path d="M125.514 64.395a1.982 1.982 0 0 1 1.238-1.825 1.99 1.99 0 0 1 2.701 1.46 1.99 1.99 0 0 1-1.951 2.37 2 2 0 0 1-1.988-2.005Zm-.551 0a2.536 2.536 0 0 0 3.044 2.471 2.544 2.544 0 0 0 1.986-1.999 2.537 2.537 0 0 0-4.289-2.275 2.548 2.548 0 0 0-.741 1.803Zm-47.471-31.93c6.322-1.553 11.72-7.953 11.72-14.561C89.211 8.194 80.085 0 70.551 0H48.019l4.774 8.778h16.213c5.216 0 8.73 5.034 8.73 9.225 0 4.064-3.944 8.63-8.812 8.63h-6.35l14.594 26.632h12.226C87.383 49.818 78.5 35.73 77.1 33.142a8.385 8.385 0 0 0-.364-.55l.755-.127ZM36.286 20.812c-6.322 1.586-11.714 7.935-11.714 14.555 0 9.704 9.131 17.898 18.664 17.898h22.541l-4.819-8.773h-16.19c-5.205 0-8.73-5.022-8.73-9.235 0-4.059 3.949-8.58 8.812-8.58h6.371C49.02 22.612 37.454 1.514 36.623 0H24.391c2.02 3.492 10.898 17.54 12.292 20.129.109.19.23.375.363.55l-.76.133Z"/></g></svg>
